symbols/web/video_library/materialsymbolsoutlined/video_library_grad200_40px.svg

<svg xmlns="http://www.w3.org/2000/svg" height="40" width="40"><path d="m17.583 24.958 12.25-7.833-12.25-7.875Zm-5.666 7q-1.417 0-2.459-1.062-1.041-1.063-1.041-2.438V6q0-1.417 1.041-2.458Q10.5 2.5 11.917 2.5h22.458q1.417 0 2.458 1.042Q37.875 4.583 37.875 6v22.458q0 1.375-1.042 2.438-1.041 1.062-2.458 1.062Zm0-3.5h22.458V6H11.917v22.458Zm-6.25 9.75q-1.417 0-2.459-1.041-1.041-1.042-1.041-2.459V8.792h3.5v25.916h25.916v3.5ZM11.917 6v22.458V6Z"/></svg>

<svg xmlns="http://www.w3.org/2000/svg" height="40" width="40"><path d="M17.583 24.958 29.833 17.125 17.583 9.25ZM11.917 31.958Q10.5 31.958 9.458 30.896Q8.417 29.833 8.417 28.458V6Q8.417 4.583 9.458 3.542Q10.5 2.5 11.917 2.5H34.375Q35.792 2.5 36.833 3.542Q37.875 4.583 37.875 6V28.458Q37.875 29.833 36.833 30.896Q35.792 31.958 34.375 31.958ZM11.917 28.458H34.375Q34.375 28.458 34.375 28.458Q34.375 28.458 34.375 28.458V6Q34.375 6 34.375 6Q34.375 6 34.375 6H11.917Q11.917 6 11.917 6Q11.917 6 11.917 6V28.458Q11.917 28.458 11.917 28.458Q11.917 28.458 11.917 28.458ZM11.917 6Q11.917 6 11.917 6Q11.917 6 11.917 6V28.458Q11.917 28.458 11.917 28.458Q11.917 28.458 11.917 28.458Q11.917 28.458 11.917 28.458Q11.917 28.458 11.917 28.458V6Q11.917 6 11.917 6Q11.917 6 11.917 6ZM5.667 38.208Q4.25 38.208 3.208 37.167Q2.167 36.125 2.167 34.708V8.792H5.667V34.708Q5.667 34.708 5.667 34.708Q5.667 34.708 5.667 34.708H31.583V38.208Z"/></svg>
